X:1
T:Save me, O God, from waves that roll
T:Save me, O God, from waves that roll (Stephen Jarvis)
C:Stephen Jarvis
Z:p9, Twelve Psalm Tunes,
Z:and Eight Anthems,
Z:in Score, London: [1821]
%%score [ 1 2 3 4 ]
L:1/8
M:2/2
K:Gmin
V:1 treble nm="Soprano" snm="S."
V:2 treble nm="Alto" snm="A."
V:3 treble-8 transpose=-12 nm="Tenor" snm="T."
V:4 bass nm="Bass" snm="B."
V:1
"^Largo" G4 B2 d2 | c6 B2 | (A2 G2 ^F2) G2 | A4 ^F4 | (G2 ^F2 G2) A2 | (B2 A2 B2) d2 | d4 c4 | %7
w: Re- proach and|grief have|broke _ _ my|heart; I|looked _ _ for|some _ _ to|take my|
w: Save me, O|God, from|waves _ _ that|roll And|press _ _ to|o- * * ver-|whelm my|
w: Lord, hear the|hum- ble|prayer _ _ I|make For|thy _ _ trans-|cend- * * ing|good- ness’|
 d8- | d4 z2 G2 | ^F6 (=ED) | B6 (AG) | d6 (cB) | e6 (dc) | f6 e2 | (e2 d2 c2) B2 | (d4 c3) B | %16
w: part,|_ To|pi- ty _|or re- *|lieve my _|pain; But _|looked, a-|las! _ _ for|both _ in|
w: soul:|_ With|pain- ful _|steps in _|mire I _|tread, And _|de- lu-|ges _ _ o’er-|flow _ my|
w: sake;|_ Re-|lieve thy _|sup- pli- *|cant once _|more From _|thy a-|bound- * * ing|mer- * cy’s|
 B6 d2 | G6 B2 | (B2 A2) A4 | G6 A2 | (G2 ^F2) d4 | (dced c2) B2 | A4 G4 | G4 ^F4 | G8 |] %25
w: vain, to|pi- ty|or _ re-|lieve my|pain; _ but|looked, _ _ _ _ a-|las! for|both in|vain.|
w: head; with|pain- ful|steps _ in|mire I|tread, _ and|de- * * * * lu-|ges o’er-|flow my|head.|
w: store; re-|lieve thy|sup- * pli-|cant once|more _ from|thy _ _ _ _ a-|bound- ing|mer- cy’s|store.|
V:2
 D4 D2 G2 | ^F6 G2 | (E2 D2 C2) B,2 | D6 D2 | D6 D2 | D6 ^F2 | G6 G2 | ^F8- | F4 z2 D2 | C4 A4 | %10
w: Re- proach and|grief have|broke _ _ my|heart; I|looked for|some to|take my|part,|_ To|pi- ty|
w: Save me, O|God, from|waves _ _ that|roll And|press to|o- ver-|whelm my|soul:|_ With|pain- ful|
w: Lord, hear the|hum- ble|prayer _ _ I|make For|thy trans-|cend- ing|good- ness’|sake;|_ Re-|lieve thy|
 D4 E4 | (D2 G4) G2 | G6 G2 | F4 F4 | F4 G4 | (F4 E3) D | D6 D2 | D4 D4 | E6 (DC) | %19
w: or re-|lieve _ my|pain; But|looked, a-|las! for|both _ in|vain, to|pi- ty|or re- *|
w: steps in|mire _ I|tread, And|de- lu-|ges o’er-|flow _ my|head; with|pain- ful|steps in _|
w: sup- pli-|cant _ once|more From|thy a-|bound- ing|mer- * cy’s|store; re-|lieve thy|sup- pli- *|
 (B,2 CD E2) E2 | D6 D2 | (G^FGA G2) G2 | (^F4 G2) E2 | D6 D2 | D8 |] %25
w: lieve _ _ _ my|pain; but|looked, _ _ _ _ a-|las! _ for|both in|vain.|
w: mire _ _ _ I|tread, and|de- * * * * lu-|ges _ o’er-|flow my|head.|
w: cant _ _ _ once|more from|thy _ _ _ _ a-|bound- * ing|mer- cy’s|store.|
V:3
 B4 d2 B2 | c6 d2 | (^F2 G2 A2) B2 | A6 A2 | (G2 A2 B2) d2 | (d2 c2 B2) A2 | G6 A2 | A8- | %8
w: Re- proach and|grief have|broke _ _ my|heart; I|looked _ _ for|some _ _ to|take my|part,|
w: Save me, O|God, from|waves _ _ that|roll And|press _ _ to|o- * * ver-|whelm my|soul:|
w: Lord, hear the|hum- ble|prayer _ _ I|make For|thy _ _ trans-|cend- * * ing|good- ness’|sake;|
 A4 z2 G2 | A6 A2 | B4 c4 | d6 d2 | c4 c4 | c2 F2 A2 c2 | (B8- | B4 A3) B | B6 B2 | d4 B4 | %18
w: _ To|pi- ty|or re-|lieve my|pain; But|looked, a- las! for|both|_ _ in|vain, to|pi- ty|
w: _ With|pain- ful|steps in|mire I|tread, And|de- lu- ges o’er-|flow|_ _ my|head; with|pain- ful|
w: _ Re-|lieve thy|sup- pli-|cant once|more From|thy a- bound- ing|mer-|* * cy’s|store; re-|lieve thy|
 G6 ^F2 | (G2 AB c2) c2 | (B2 A4) ^F2 | (GA B2 cd) e2 | d6 c2 | B4 (A3 G) | G8 |] %25
w: or re-|lieve _ _ _ my|pain; _ but|looked, _ _ _ _ a-|las! for|both in _|vain.|
w: steps in|mire _ _ _ I|tread, _ and|de- * * * * lu-|ges o’er-|flow my _|head.|
w: sup- pli-|cant _ _ _ once|more _ from|thy _ _ _ _ a-|bound- ing|mer- cy’s _|store.|
V:4
 G,4 G,2 B,2 | A,6 B,2 | (C2 B,2 A,2) G,2 | ^F,4 D,4 | (B,2 A,2 G,2) ^F,2 | (G,2 ^F,2 G,2) D,2 | %6
w: Re- proach and|grief have|broke _ _ my|heart; I|looked _ _ for|some _ _ to|
w: Save me, O|God, from|waves _ _ that|roll And|press _ _ to|o- * * ver-|
w: Lord, hear the|hum- ble|prayer _ _ I|make For|thy _ _ trans-|cend- * * ing|
 E,6 E,2 | D,8- | D,4 z2 B,2 | A,6 ^F,2 | G,4 C4 | B,6 G,2 | C6 B,2 | A,4 F,4 | B,4 E,4 | F,6 F,2 | %16
w: take my|part,|_ To|pi- ty|or re-|lieve my|pain; But|looked, a-|las! for|both in|
w: whelm my|soul:|_ With|pain- ful|steps in|mire I|tread, And|de- lu-|ges o’er-|flow my|
w: good- ness’|sake;|_ Re-|lieve thy|sup- pli-|cant once|more From|thy a-|bound- ing|mer- cy’s|
 B,,6 G,2 | B,4 G,4 | C,6 D,2 | E,4 C,4 | %20
w: vain, to|pi- ty|or re-|lieve my|
w: head; with|pain- ful|steps in|mire I|
w: store; re-|lieve thy|sup- pli-|cant once|
"^Original order of staves is Counter - Tenor - Treble - Bass: the counter part is notated in the source in the treble clef, anoctave above sounding pitch. The vocal bass part is figured in the original: this figuring has been omitted from the presentedition to facilitate the underlaying of the text. The first verse only of the text is given in the original: subsequent verseshave been added editorially, on the basis of the title 'Psalm 69th. 1/2, 16, 20 & 29/30 Verses' in the original. The treble Gand tenor Bb on beat 1 of bar 21 are printed in the source as small grace notes, and have been editorially written out in full." D,6 (DC) | %21
w: pain; but _|
w: tread, and _|
w: more from _|
 (B,A,G,F, E,2) C,2 | (D,2 C,2 B,,2) C,2 | D,6 D,2 | G,,8 |] %25
w: looked, _ _ _ _ a-|las! _ _ for|both in|vain.|
w: de- * * * * lu-|ges _ _ o’er-|flow my|head.|
w: thy _ _ _ _ a-|bound- * * ing|mer- cy’s|store.|

